icons/Chef_filled.svg

<svg width="24" height="24" viewBox="0 0 24 24" fill="none" xmlns="http://www.w3.org/2000/svg">
<path fill-rule="evenodd" clip-rule="evenodd" d="M11.9957,1.75c0.4822,-0.00063 0.9586,0.10606 1.3945,0.31233c0.4359,0.20628 0.8204,0.50698 1.1257,0.8803c0.1566,0.19154 0.2904,0.39974 0.3991,0.62031c0.1484,-0.03231 0.2997,-0.05236 0.4523,-0.05974c0.419,-0.02024 0.8372,0.05566 1.2224,0.2219c0.3852,0.16624 0.7272,0.4184 0.9999,0.7372c0.2728,0.31879 0.469,0.69576 0.5736,1.10205c0.1046,0.40629 0.1148,0.83112 0.0299,1.24199c-0.0848,0.41086 -0.2626,0.79686 -0.5196,1.12844c-0.257,0.33158 -0.5865,0.59996 -0.9633,0.7846c-0.1482,0.07267 -0.3023,0.13161 -0.4602,0.17637v1.10425v1.5c0,2.3472 -1.9028,4.25 -4.25,4.25c-2.34721,0 -4.25,-1.9028 -4.25,-4.25v-1.5v-1.10425c-0.15851,-0.04493 -0.31314,-0.10415 -0.46196,-0.17722c-0.37717,-0.18518 -0.7069,-0.45432 -0.96386,-0.78678c-0.25697,-0.33245 -0.43433,-0.71937 -0.51847,-1.13104c-0.08415,-0.41167 -0.07284,-0.83715 0.03306,-1.24377c0.10589,-0.40662 0.30356,-0.78357 0.57782,-1.1019c0.27426,-0.31834 0.61782,-0.56959 1.0043,-0.73447c0.38648,-0.16488 0.8056,-0.23901 1.2252,-0.21669c0.14809,0.00788 0.29484,0.0277 0.43889,0.05906c0.10747,-0.218 0.23939,-0.42393 0.3937,-0.61365c0.30429,-0.37412 0.68802,-0.67584 1.12342,-0.88327c0.4353,-0.20743 0.9114,-0.31538 1.3936,-0.31602zM14.75,10.499c-0.1293,-0.048 -0.2857,-0.1017 -0.4655,-0.1556c-0.5751,-0.1726 -1.3758,-0.3434 -2.2845,-0.3434c-0.9087,0 -1.7094,0.1708 -2.28449,0.3434c-0.17982,0.0539 -0.33625,0.1076 -0.46551,0.1556v1.001c0,1.5188 1.2312,2.75 2.75,2.75c1.5188,0 2.75,-1.2312 2.75,-2.75zM15.1663,10.6717c0.0002,0.0001 0.0001,0 -0.0004,-0.0002zM5.25,21.4c0,-2.5681 2.08187,-4.65 4.65,-4.65h4.2c2.5681,0 4.65,2.0819 4.65,4.65v0.1c0,0.1989 -0.079,0.3897 -0.2197,0.5303c-0.1406,0.1407 -0.3314,0.2197 -0.5303,0.2197h-12c-0.41421,0 -0.75,-0.3358 -0.75,-0.75z" fill="#002B51"/>
</svg>

<svg width="24" height="24" viewBox="0 0 24 24" fill="none" xmlns="http://www.w3.org/2000/svg">
<path fill-rule="evenodd" clip-rule="evenodd" d="M11.9957 1.75C12.4779 1.74937 12.9543 1.85606 13.3902 2.06233C13.8261 2.26861 14.2106 2.56931 14.5159 2.94263C14.6725 3.13417 14.8063 3.34237 14.915 3.56294C15.0634 3.53063 15.2147 3.51058 15.3673 3.5032C15.7863 3.48296 16.2045 3.55886 16.5897 3.7251C16.9749 3.89134 17.3169 4.1435 17.5896 4.4623C17.8624 4.78109 18.0586 5.15806 18.1632 5.56435C18.2678 5.97064 18.278 6.39547 18.1931 6.80634C18.1083 7.2172 17.9305 7.6032 17.6735 7.93478C17.4165 8.26636 17.087 8.53474 16.7102 8.71938C16.562 8.79205 16.4079 8.85099 16.25 8.89575V10V11.5C16.25 13.8472 14.3472 15.75 12 15.75C9.65279 15.75 7.75 13.8472 7.75 11.5V10V8.89575C7.59149 8.85082 7.43686 8.7916 7.28804 8.71853C6.91087 8.53335 6.58114 8.26421 6.32418 7.93175C6.06721 7.5993 5.88985 7.21238 5.80571 6.80071C5.72156 6.38904 5.73287 5.96356 5.83877 5.55694C5.94466 5.15032 6.14233 4.77337 6.41659 4.45504C6.69085 4.1367 7.03441 3.88545 7.42089 3.72057C7.80737 3.55569 8.22649 3.48156 8.64609 3.50388C8.79418 3.51176 8.94093 3.53158 9.08498 3.56294C9.19245 3.34494 9.32437 3.13901 9.47868 2.94929C9.78297 2.57517 10.1667 2.27345 10.6021 2.06602C11.0374 1.85859 11.5135 1.75064 11.9957 1.75ZM14.75 10.499C14.6207 10.451 14.4643 10.3973 14.2845 10.3434C13.7094 10.1708 12.9087 10 12 10C11.0913 10 10.2906 10.1708 9.71551 10.3434C9.53569 10.3973 9.37926 10.451 9.25 10.499V11.5C9.25 13.0188 10.4812 14.25 12 14.25C13.5188 14.25 14.75 13.0188 14.75 11.5V10.499ZM15.1659 10.6715C15.1664 10.6717 15.1665 10.6718 15.1663 10.6717L15.1659 10.6715ZM5.25 21.4C5.25 18.8319 7.33187 16.75 9.9 16.75H14.1C16.6681 16.75 18.75 18.8319 18.75 21.4V21.5C18.75 21.6989 18.671 21.8897 18.5303 22.0303C18.3897 22.171 18.1989 22.25 18 22.25H6C5.58579 22.25 5.25 21.9142 5.25 21.5V21.4Z" fill="#002B51"/>
</svg>
